cartflows/admin-core/assets/images/upsell_step.svg

<svg width="200" height="259" viewBox="0 0 200 259" fill="none" xmlns="http://www.w3.org/2000/svg">
<rect x="0.5" y="0.5" width="199" height="258" rx="9.5" fill="white" stroke="#EFEFEF"/>
<path d="M0 10C0 4.47716 4.47715 0 10 0H190C195.523 0 200 4.47715 200 10V28.1474H0V10Z" fill="#E6EAED"/>
<ellipse cx="14" cy="14.0211" rx="4" ry="4.02105" fill="#FF3B30"/>
<ellipse cx="27" cy="14.0211" rx="4" ry="4.02105" fill="#FFCC00"/>
<ellipse cx="40" cy="14.0211" rx="4" ry="4.02105" fill="#4CD964"/>
<rect x="64" y="11" width="107" height="7" rx="1" fill="white"/>
<circle cx="99.8521" cy="92.1009" r="38.3521" fill="white" stroke="#2271B1" stroke-miterlimit="1.86218" stroke-dasharray="2 3"/>
<circle cx="99.8523" cy="92.1008" r="31.5434" fill="#F6FAFF"/>
<g clip-path="url(#clip0)">
<path d="M114.5 63.3467V75.4763C114.5 75.9142 114.674 76.3342 114.984 76.6439C115.293 76.9535 115.713 77.1275 116.151 77.1275C116.589 77.1275 117.009 76.9535 117.319 76.6439C117.629 76.3342 117.802 75.9142 117.802 75.4763V63.3467L121.89 67.4357L121.89 67.4357C122.2 67.7457 122.62 67.9198 123.058 67.9198C123.497 67.9198 123.917 67.7457 124.227 67.4357C124.537 67.1258 124.711 66.7055 124.711 66.2672C124.711 65.8289 124.537 65.4085 124.227 65.0986L117.32 58.1922C117.167 58.0384 116.985 57.9164 116.784 57.8332C116.584 57.7499 116.369 57.7071 116.151 57.7071C115.934 57.7071 115.719 57.7499 115.519 57.8332C115.318 57.9163 115.136 58.0382 114.983 58.1917C114.983 58.1919 114.982 58.192 114.982 58.1922L108.076 65.0986C107.766 65.4085 107.592 65.8289 107.592 66.2672C107.592 66.7055 107.766 67.1258 108.076 67.4357C108.386 67.7457 108.806 67.9198 109.244 67.9198C109.683 67.9198 110.103 67.7457 110.413 67.4357L110.413 67.4357L114.5 63.3467ZM128.822 54.7482C132.182 58.1085 134.07 62.6661 134.07 67.4183C134.07 72.1706 132.182 76.7281 128.822 80.0885C125.461 83.4488 120.904 85.3366 116.151 85.3366C111.399 85.3366 106.842 83.4488 103.481 80.0885C100.121 76.7281 98.233 72.1706 98.233 67.4183C98.233 62.6661 100.121 58.1085 103.481 54.7482C106.842 51.3878 111.399 49.5 116.151 49.5C120.904 49.5 125.461 51.3878 128.822 54.7482Z" fill="white" stroke="#2271B1"/>
</g>
<g clip-path="url(#clip1)">
<path d="M68.6747 116.029C68.6747 115.364 68.939 114.726 69.4094 114.255C69.8799 113.785 70.5179 113.52 71.1833 113.52H76.2004C76.8657 113.52 77.5038 113.785 77.9742 114.255C78.4447 114.726 78.709 115.364 78.709 116.029V123.555C78.709 124.22 78.4447 124.858 77.9742 125.329C77.5038 125.799 76.8657 126.063 76.2004 126.063H71.1833C70.5179 126.063 69.8799 125.799 69.4094 125.329C68.939 124.858 68.6747 124.22 68.6747 123.555V116.029ZM81.2175 105.995C81.2175 105.329 81.4818 104.691 81.9523 104.221C82.4227 103.75 83.0608 103.486 83.7261 103.486H88.7432C89.4086 103.486 90.0466 103.75 90.5171 104.221C90.9875 104.691 91.2518 105.329 91.2518 105.995V123.555C91.2518 124.22 90.9875 124.858 90.5171 125.329C90.0466 125.799 89.4086 126.063 88.7432 126.063H83.7261C83.0608 126.063 82.4227 125.799 81.9523 125.329C81.4818 124.858 81.2175 124.22 81.2175 123.555V105.995ZM93.7604 93.4519C93.7604 92.7866 94.0247 92.1485 94.4951 91.6781C94.9656 91.2076 95.6036 90.9433 96.2689 90.9433H101.286C101.951 90.9433 102.589 91.2076 103.06 91.6781C103.53 92.1485 103.795 92.7866 103.795 93.4519V123.555C103.795 124.22 103.53 124.858 103.06 125.329C102.589 125.799 101.951 126.063 101.286 126.063H96.2689C95.6036 126.063 94.9656 125.799 94.4951 125.329C94.0247 124.858 93.7604 124.22 93.7604 123.555V93.4519Z" fill="#2271B1"/>
</g>
<rect x="88.4966" y="109.765" width="25.2347" height="25.2347" rx="12.6174" fill="white"/>
<path d="M101.114 111.868C99.0344 111.868 97.0015 112.485 95.2724 113.64C93.5433 114.796 92.1957 116.438 91.3999 118.359C90.604 120.28 90.3958 122.394 90.8015 124.434C91.2072 126.474 92.2086 128.347 93.6791 129.817C95.1496 131.288 97.0231 132.289 99.0627 132.695C101.102 133.101 103.216 132.893 105.138 132.097C107.059 131.301 108.701 129.953 109.856 128.224C111.012 126.495 111.628 124.462 111.628 122.383C111.628 121.002 111.356 119.635 110.828 118.359C110.3 117.083 109.525 115.924 108.549 114.948C107.572 113.971 106.413 113.197 105.138 112.669C103.862 112.14 102.495 111.868 101.114 111.868ZM101.114 130.794C99.4503 130.794 97.824 130.301 96.4407 129.377C95.0575 128.452 93.9793 127.139 93.3427 125.602C92.706 124.065 92.5394 122.373 92.864 120.742C93.1886 119.11 93.9897 117.611 95.1661 116.435C96.3425 115.258 97.8412 114.457 99.4729 114.133C101.105 113.808 102.796 113.975 104.333 114.611C105.87 115.248 107.184 116.326 108.108 117.709C109.032 119.093 109.526 120.719 109.526 122.383C109.526 124.614 108.639 126.753 107.062 128.331C105.484 129.908 103.345 130.794 101.114 130.794Z" fill="#2271B1"/>
<path d="M101.114 121.331C99.0111 121.331 99.0111 120.669 99.0111 120.28C99.0111 119.891 99.7471 119.228 101.114 119.228C102.481 119.228 102.575 119.901 102.586 120.28H104.689C104.675 119.563 104.417 118.873 103.958 118.323C103.5 117.773 102.867 117.395 102.165 117.252V116.074H100.063V117.22C97.9596 117.567 96.9082 118.923 96.9082 120.28C96.9082 121.457 97.455 123.434 101.114 123.434C103.217 123.434 103.217 124.149 103.217 124.486C103.217 124.822 102.565 125.537 101.114 125.537C99.1793 125.537 99.0111 124.633 99.0111 124.486H96.9082C96.9082 125.453 97.6022 127.167 100.063 127.556V128.691H102.165V127.556C104.268 127.198 105.32 125.842 105.32 124.486C105.32 123.308 104.773 121.331 101.114 121.331Z" fill="#2271B1"/>
<rect x="50" y="150" width="100" height="4" rx="1" fill="#2271B1"/>
<rect x="23" y="164" width="154" height="4" rx="1" fill="#EAEAEA"/>
<rect x="70" y="178" width="60" height="4" rx="1" fill="#EAEAEA"/>
<rect x="23" y="197" width="154" height="20" rx="2" fill="#2271B1"/>
<path d="M73.4007 210.5L73.8865 209.007H76.2484L76.7342 210.5H78.2171L75.9607 203.955H74.1773L71.9177 210.5H73.4007ZM74.2381 207.927L75.0435 205.45H75.0946L75.9 207.927H74.2381ZM80.9689 210.596C82.2761 210.596 83.0974 209.829 83.1614 208.701H81.8766C81.7967 209.225 81.4515 209.519 80.9849 209.519C80.3489 209.519 79.9366 208.985 79.9366 208.045C79.9366 207.119 80.3521 206.588 80.9849 206.588C81.4834 206.588 81.803 206.917 81.8766 207.406H83.1614C83.1038 206.272 82.2441 205.527 80.9625 205.527C79.4731 205.527 78.5527 206.559 78.5527 208.065C78.5527 209.557 79.4572 210.596 80.9689 210.596ZM86.2511 210.596C87.5583 210.596 88.3797 209.829 88.4436 208.701H87.1588C87.0789 209.225 86.7337 209.519 86.2671 209.519C85.6311 209.519 85.2188 208.985 85.2188 208.045C85.2188 207.119 85.6343 206.588 86.2671 206.588C86.7657 206.588 87.0853 206.917 87.1588 207.406H88.4436C88.3861 206.272 87.5263 205.527 86.2447 205.527C84.7554 205.527 83.8349 206.559 83.8349 208.065C83.8349 209.557 84.7394 210.596 86.2511 210.596ZM91.5525 210.596C92.767 210.596 93.5852 210.005 93.7769 209.094L92.5177 209.011C92.3803 209.385 92.0287 209.58 91.5749 209.58C90.8941 209.58 90.4627 209.129 90.4627 208.397V208.394H93.8057V208.02C93.8057 206.352 92.7958 205.527 91.4982 205.527C90.0536 205.527 89.1171 206.553 89.1171 208.068C89.1171 209.624 90.0408 210.596 91.5525 210.596ZM90.4627 207.55C90.4914 206.991 90.9165 206.543 91.5206 206.543C92.1118 206.543 92.5209 206.965 92.5241 207.55H90.4627ZM94.6942 212.341H96.0557V209.714H96.0973C96.2858 210.123 96.6981 210.58 97.4907 210.58C98.6093 210.58 99.4818 209.695 99.4818 208.052C99.4818 206.364 98.571 205.527 97.4939 205.527C96.6725 205.527 96.2794 206.016 96.0973 206.415H96.0365V205.591H94.6942V212.341ZM96.0269 208.045C96.0269 207.17 96.3977 206.61 97.0593 206.61C97.7336 206.61 98.0916 207.195 98.0916 208.045C98.0916 208.902 97.7272 209.496 97.0593 209.496C96.4041 209.496 96.0269 208.921 96.0269 208.045ZM103.001 205.591H102.077V204.415H100.716V205.591H100.044V206.614H100.716V209.17C100.709 210.132 101.364 210.609 102.352 210.567C102.703 210.554 102.953 210.484 103.09 210.439L102.876 209.426C102.809 209.439 102.665 209.471 102.537 209.471C102.266 209.471 102.077 209.369 102.077 208.991V206.614H103.001V205.591ZM112.011 207.227C112.011 205.086 110.682 203.865 108.946 203.865C107.201 203.865 105.881 205.086 105.881 207.227C105.881 209.359 107.201 210.589 108.946 210.589C110.682 210.589 112.011 209.369 112.011 207.227ZM110.608 207.227C110.608 208.614 109.95 209.365 108.946 209.365C107.939 209.365 107.284 208.614 107.284 207.227C107.284 205.84 107.939 205.089 108.946 205.089C109.95 205.089 110.608 205.84 110.608 207.227ZM115.651 205.591H114.676V205.262C114.676 204.929 114.81 204.734 115.209 204.734C115.372 204.734 115.539 204.77 115.647 204.805L115.887 203.782C115.718 203.731 115.344 203.648 114.925 203.648C114.001 203.648 113.314 204.169 113.314 205.236V205.591H112.621V206.614H113.314V210.5H114.676V206.614H115.651V205.591ZM119.122 205.591H118.147V205.262C118.147 204.929 118.282 204.734 118.681 204.734C118.844 204.734 119.01 204.77 119.119 204.805L119.359 203.782C119.189 203.731 118.815 203.648 118.397 203.648C117.473 203.648 116.786 204.169 116.786 205.236V205.591H116.092V206.614H116.786V210.5H118.147V206.614H119.122V205.591ZM122.015 210.596C123.23 210.596 124.048 210.005 124.24 209.094L122.981 209.011C122.843 209.385 122.492 209.58 122.038 209.58C121.357 209.58 120.926 209.129 120.926 208.397V208.394H124.269V208.02C124.269 206.352 123.259 205.527 121.961 205.527C120.516 205.527 119.58 206.553 119.58 208.068C119.58 209.624 120.504 210.596 122.015 210.596ZM120.926 207.55C120.954 206.991 121.379 206.543 121.983 206.543C122.575 206.543 122.984 206.965 122.987 207.55H120.926ZM125.157 210.5H126.519V207.723C126.519 207.119 126.96 206.703 127.561 206.703C127.749 206.703 128.008 206.735 128.136 206.777V205.569C128.014 205.54 127.845 205.521 127.708 205.521C127.158 205.521 126.707 205.84 126.528 206.447H126.477V205.591H125.157V210.5Z" fill="white"/>
<path d="M79.921 233.5H80.9973V231.695H81.7828L82.7473 233.5H83.9355L82.8542 231.521C83.4334 231.273 83.7541 230.768 83.7541 230.072C83.7541 229.06 83.0854 228.409 81.9295 228.409H79.921V233.5ZM80.9973 230.83V229.289H81.7232C82.3446 229.289 82.6454 229.565 82.6454 230.072C82.6454 230.577 82.3446 230.83 81.7282 230.83H80.9973ZM86.1734 233.575C87.118 233.575 87.7544 233.115 87.9035 232.406L86.9241 232.342C86.8172 232.632 86.5438 232.784 86.1908 232.784C85.6613 232.784 85.3257 232.434 85.3257 231.864V231.862H87.9259V231.571C87.9259 230.273 87.1404 229.632 86.1311 229.632C85.0075 229.632 84.2792 230.43 84.2792 231.608C84.2792 232.819 84.9976 233.575 86.1734 233.575ZM85.3257 231.206C85.3481 230.771 85.6787 230.423 86.1485 230.423C86.6084 230.423 86.9266 230.751 86.9291 231.206H85.3257ZM88.6169 229.682V233.672C88.6169 233.96 88.4951 234.104 88.1546 234.104C88.1098 234.104 88.07 234.104 88.0154 234.099V234.927C88.0924 234.929 88.1546 234.932 88.2291 234.932C89.129 234.932 89.6759 234.574 89.6759 233.689V229.682H88.6169ZM89.1439 229.19C89.4596 229.19 89.7181 228.949 89.7181 228.653C89.7181 228.359 89.4596 228.118 89.1439 228.118C88.8307 228.118 88.5722 228.359 88.5722 228.653C88.5722 228.949 88.8307 229.19 89.1439 229.19ZM92.2642 233.575C93.2088 233.575 93.8452 233.115 93.9943 232.406L93.0149 232.342C92.908 232.632 92.6346 232.784 92.2816 232.784C91.7521 232.784 91.4165 232.434 91.4165 231.864V231.862H94.0167V231.571C94.0167 230.273 93.2312 229.632 92.2219 229.632C91.0984 229.632 90.37 230.43 90.37 231.608C90.37 232.819 91.0884 233.575 92.2642 233.575ZM91.4165 231.206C91.4389 230.771 91.7695 230.423 92.2393 230.423C92.6992 230.423 93.0174 230.751 93.0199 231.206H91.4165ZM96.4329 233.575C97.4496 233.575 98.0884 232.978 98.1381 232.1H97.1388C97.0767 232.508 96.8082 232.737 96.4453 232.737C95.9506 232.737 95.63 232.322 95.63 231.591C95.63 230.87 95.9531 230.457 96.4453 230.457C96.8331 230.457 97.0817 230.713 97.1388 231.094H98.1381C98.0934 230.211 97.4247 229.632 96.4279 229.632C95.2695 229.632 94.5536 230.435 94.5536 231.606C94.5536 232.767 95.2571 233.575 96.4329 233.575ZM100.847 229.682H100.129V228.767H99.0697V229.682H98.5477V230.477H99.0697V232.466C99.0647 233.214 99.5743 233.585 100.342 233.552C100.616 233.542 100.81 233.488 100.917 233.453L100.75 232.665C100.698 232.675 100.586 232.7 100.487 232.7C100.275 232.7 100.129 232.62 100.129 232.327V230.477H100.847V229.682ZM107.855 230.955C107.855 229.289 106.821 228.339 105.471 228.339C104.114 228.339 103.087 229.289 103.087 230.955C103.087 232.613 104.114 233.57 105.471 233.57C106.821 233.57 107.855 232.62 107.855 230.955ZM106.764 230.955C106.764 232.033 106.252 232.618 105.471 232.618C104.688 232.618 104.179 232.033 104.179 230.955C104.179 229.876 104.688 229.292 105.471 229.292C106.252 229.292 106.764 229.876 106.764 230.955ZM110.686 229.682H109.928V229.426C109.928 229.167 110.032 229.016 110.343 229.016C110.47 229.016 110.599 229.043 110.683 229.07L110.87 228.275C110.738 228.235 110.447 228.17 110.122 228.17C109.403 228.17 108.869 228.576 108.869 229.406V229.682H108.329V230.477H108.869V233.5H109.928V230.477H110.686V229.682ZM113.386 229.682H112.628V229.426C112.628 229.167 112.732 229.016 113.043 229.016C113.17 229.016 113.299 229.043 113.384 229.07L113.57 228.275C113.438 228.235 113.147 228.17 112.822 228.17C112.103 228.17 111.569 228.576 111.569 229.406V229.682H111.029V230.477H111.569V233.5H112.628V230.477H113.386V229.682ZM115.636 233.575C116.581 233.575 117.217 233.115 117.366 232.406L116.387 232.342C116.28 232.632 116.007 232.784 115.654 232.784C115.124 232.784 114.789 232.434 114.789 231.864V231.862H117.389V231.571C117.389 230.273 116.603 229.632 115.594 229.632C114.47 229.632 113.742 230.43 113.742 231.608C113.742 232.819 114.46 233.575 115.636 233.575ZM114.789 231.206C114.811 230.771 115.142 230.423 115.611 230.423C116.071 230.423 116.389 230.751 116.392 231.206H114.789ZM118.08 233.5H119.139V231.34C119.139 230.87 119.482 230.547 119.949 230.547C120.096 230.547 120.297 230.572 120.397 230.604V229.664C120.302 229.642 120.17 229.627 120.063 229.627C119.636 229.627 119.285 229.876 119.146 230.348H119.106V229.682H118.08V233.5Z" fill="#A1A1A1"/>
<defs>
<clipPath id="clip0">
<rect width="36.8366" height="36.8366" fill="white" transform="translate(97.733 49)"/>
</clipPath>
<clipPath id="clip1">
<rect width="37.8521" height="37.8521" fill="white" transform="translate(68.309 89.5776)"/>
</clipPath>
</defs>
</svg>

<svg width="200" height="259" fill="none" xmlns="http://www.w3.org/2000/svg"><rect x=".5" y=".5" width="199" height="258" rx="9.5" fill="#fff" stroke="#EFEFEF"/><path d="M0 10C0 4.477 4.477 0 10 0h180c5.523 0 10 4.477 10 10v18.147H0V10Z" fill="#E6EAED"/><ellipse cx="14" cy="14.021" rx="4" ry="4.021" fill="#FF3B30"/><ellipse cx="27" cy="14.021" rx="4" ry="4.021" fill="#FC0"/><ellipse cx="40" cy="14.021" rx="4" ry="4.021" fill="#4CD964"/><rect x="64" y="11" width="107" height="7" rx="1" fill="#fff"/><circle cx="99.852" cy="92.101" r="38.352" fill="#fff" stroke="#2271B1" stroke-miterlimit="1.862" stroke-dasharray="2 3"/><circle cx="99.852" cy="92.101" r="31.543" fill="#F6FAFF"/><g clip-path="url(#a)"><path d="M114.5 63.347v12.13a1.65 1.65 0 1 0 3.302 0v-12.13l4.088 4.089a1.652 1.652 0 1 0 2.337-2.337l-6.907-6.907a1.641 1.641 0 0 0-1.169-.485 1.644 1.644 0 0 0-1.168.485h-.001l-6.906 6.907a1.652 1.652 0 1 0 2.337 2.337l4.087-4.09Zm14.322-8.599a17.92 17.92 0 1 1-25.343 25.341 17.92 17.92 0 0 1 25.343-25.34Z" fill="#fff" stroke="#2271B1"/></g><g clip-path="url(#b)"><path d="M68.675 116.029a2.51 2.51 0 0 1 2.508-2.509H76.2a2.51 2.51 0 0 1 2.509 2.509v7.526a2.51 2.51 0 0 1-2.509 2.508h-5.017a2.51 2.51 0 0 1-2.508-2.508v-7.526Zm12.543-10.034a2.507 2.507 0 0 1 2.508-2.509h5.017a2.507 2.507 0 0 1 2.509 2.509v17.56a2.51 2.51 0 0 1-2.509 2.508h-5.017a2.51 2.51 0 0 1-2.508-2.508v-17.56ZM93.76 93.452a2.509 2.509 0 0 1 2.509-2.509h5.017a2.51 2.51 0 0 1 2.509 2.509v30.103a2.512 2.512 0 0 1-2.509 2.508h-5.017a2.51 2.51 0 0 1-2.509-2.508V93.452Z" fill="#2271B1"/></g><rect x="88.497" y="109.765" width="25.235" height="25.235" rx="12.617" fill="#fff"/><path d="M101.114 111.868a10.517 10.517 0 0 0-9.714 6.491 10.513 10.513 0 1 0 9.714-6.491Zm0 18.926a8.413 8.413 0 0 1-7.771-5.192 8.411 8.411 0 1 1 7.771 5.192Z" fill="#2271B1"/><path d="M101.114 121.331c-2.103 0-2.103-.662-2.103-1.051 0-.389.736-1.052 2.103-1.052 1.367 0 1.461.673 1.472 1.052h2.103a3.15 3.15 0 0 0-2.524-3.028v-1.178h-2.102v1.146c-2.103.347-3.155 1.703-3.155 3.06 0 1.177.547 3.154 4.206 3.154 2.103 0 2.103.715 2.103 1.052 0 .336-.652 1.051-2.103 1.051-1.935 0-2.103-.904-2.103-1.051h-2.103c0 .967.694 2.681 3.155 3.07v1.135h2.102v-1.135c2.103-.358 3.155-1.714 3.155-3.07 0-1.178-.547-3.155-4.206-3.155Z" fill="#2271B1"/><rect x="50" y="150" width="100" height="4" rx="1" fill="#2271B1"/><rect x="23" y="164" width="154" height="4" rx="1" fill="#EAEAEA"/><rect x="70" y="178" width="60" height="4" rx="1" fill="#EAEAEA"/><rect x="23" y="197" width="154" height="20" rx="2" fill="#2271B1"/><path d="m73.4 210.5.486-1.493h2.362l.486 1.493h1.483l-2.256-6.545h-1.784l-2.26 6.545h1.484Zm.838-2.573.805-2.477h.052l.805 2.477h-1.662Zm6.73 2.669c1.308 0 2.13-.767 2.193-1.895h-1.284c-.08.524-.425.818-.892.818-.636 0-1.048-.534-1.048-1.474 0-.926.415-1.457 1.048-1.457.498 0 .818.329.892.818h1.284c-.057-1.134-.917-1.879-2.198-1.879-1.49 0-2.41 1.032-2.41 2.538 0 1.492.904 2.531 2.416 2.531Zm5.283 0c1.307 0 2.129-.767 2.193-1.895h-1.285c-.08.524-.425.818-.892.818-.636 0-1.048-.534-1.048-1.474 0-.926.415-1.457 1.048-1.457.499 0 .818.329.892.818h1.285c-.058-1.134-.918-1.879-2.2-1.879-1.489 0-2.41 1.032-2.41 2.538 0 1.492.905 2.531 2.417 2.531Zm5.301 0c1.215 0 2.033-.591 2.225-1.502l-1.26-.083c-.137.374-.488.569-.942.569-.68 0-1.112-.451-1.112-1.183v-.003h3.343v-.374c0-1.668-1.01-2.493-2.308-2.493-1.444 0-2.38 1.026-2.38 2.541 0 1.556.923 2.528 2.434 2.528Zm-1.09-3.046a1.037 1.037 0 0 1 1.059-1.007c.59 0 1 .422 1.003 1.007h-2.061Zm4.232 4.791h1.362v-2.627h.041c.189.409.601.866 1.394.866 1.118 0 1.99-.885 1.99-2.528 0-1.688-.91-2.525-1.987-2.525-.822 0-1.215.489-1.397.888h-.06v-.824h-1.343v6.75Zm1.333-4.296c0-.875.37-1.435 1.032-1.435.675 0 1.033.585 1.033 1.435 0 .857-.365 1.451-1.033 1.451-.655 0-1.032-.575-1.032-1.451Zm6.974-2.454h-.924v-1.176h-1.361v1.176h-.672v1.023h.672v2.556c-.007.962.648 1.439 1.636 1.397.351-.013.601-.083.738-.128l-.214-1.013c-.067.013-.211.045-.339.045-.271 0-.46-.102-.46-.48v-2.377h.924v-1.023Zm9.01 1.636c0-2.141-1.329-3.362-3.065-3.362-1.745 0-3.065 1.221-3.065 3.362 0 2.132 1.32 3.362 3.065 3.362 1.736 0 3.065-1.22 3.065-3.362Zm-1.403 0c0 1.387-.658 2.138-1.662 2.138-1.007 0-1.662-.751-1.662-2.138s.655-2.138 1.662-2.138c1.004 0 1.662.751 1.662 2.138Zm5.043-1.636h-.975v-.329c0-.333.134-.528.533-.528.163 0 .33.036.438.071l.24-1.023a3.589 3.589 0 0 0-.962-.134c-.924 0-1.611.521-1.611 1.588v.355h-.693v1.023h.693v3.886h1.362v-3.886h.975v-1.023Zm3.471 0h-.975v-.329c0-.333.135-.528.534-.528.163 0 .329.036.438.071l.24-1.023a3.603 3.603 0 0 0-.962-.134c-.924 0-1.611.521-1.611 1.588v.355h-.694v1.023h.694v3.886h1.361v-3.886h.975v-1.023Zm2.893 5.005c1.215 0 2.033-.591 2.225-1.502l-1.259-.083c-.138.374-.489.569-.943.569-.681 0-1.112-.451-1.112-1.183v-.003h3.343v-.374c0-1.668-1.01-2.493-2.308-2.493-1.445 0-2.381 1.026-2.381 2.541 0 1.556.924 2.528 2.435 2.528Zm-1.089-3.046a1.036 1.036 0 0 1 1.057-1.007c.592 0 1.001.422 1.004 1.007h-2.061Zm4.231 2.95h1.362v-2.777c0-.604.441-1.02 1.042-1.02.188 0 .447.032.575.074v-1.208a2.033 2.033 0 0 0-.428-.048c-.55 0-1.001.319-1.18.926h-.051v-.856h-1.32v4.909Z" fill="#fff"/><path d="M79.921 233.5h1.076v-1.805h.786l.964 1.805h1.189l-1.082-1.979c.58-.248.9-.753.9-1.449 0-1.012-.669-1.663-1.825-1.663h-2.008v5.091Zm1.076-2.67v-1.541h.726c.622 0 .922.276.922.783 0 .505-.3.758-.917.758h-.73Zm5.176 2.745c.945 0 1.581-.46 1.73-1.169l-.979-.064c-.107.29-.38.442-.733.442-.53 0-.865-.35-.865-.92v-.002h2.6v-.291c0-1.298-.786-1.939-1.795-1.939-1.124 0-1.852.798-1.852 1.976 0 1.211.719 1.967 1.894 1.967Zm-.847-2.369a.806.806 0 0 1 .823-.783c.46 0 .778.328.78.783h-1.603Zm3.29-1.524v3.99c0 .288-.12.432-.461.432-.045 0-.085 0-.14-.005v.828c.077.002.14.005.214.005.9 0 1.447-.358 1.447-1.243v-4.007h-1.06Zm.528-.492c.316 0 .574-.241.574-.537 0-.294-.258-.535-.574-.535-.313 0-.572.241-.572.535 0 .296.259.537.572.537Zm3.12 4.385c.945 0 1.581-.46 1.73-1.169l-.98-.064c-.106.29-.38.442-.732.442-.53 0-.865-.35-.865-.92v-.002h2.6v-.291c0-1.298-.786-1.939-1.795-1.939-1.124 0-1.852.798-1.852 1.976 0 1.211.718 1.967 1.894 1.967Zm-.847-2.369a.806.806 0 0 1 .822-.783c.46 0 .778.328.78.783h-1.603Zm5.016 2.369c1.017 0 1.655-.597 1.705-1.475h-1c-.061.408-.33.637-.693.637-.494 0-.815-.415-.815-1.146 0-.721.323-1.134.815-1.134.388 0 .637.256.694.637h1c-.046-.883-.714-1.462-1.711-1.462-1.159 0-1.874.803-1.874 1.974 0 1.161.703 1.969 1.879 1.969Zm4.414-3.893h-.718v-.915h-1.06v.915h-.521v.795h.522v1.989c-.005.748.504 1.119 1.272 1.086.274-.01.468-.064.575-.099l-.167-.788c-.052.01-.164.035-.263.035-.212 0-.358-.08-.358-.373v-1.85h.718v-.795Zm7.008 1.273c0-1.666-1.034-2.616-2.384-2.616-1.357 0-2.384.95-2.384 2.616 0 1.658 1.027 2.615 2.384 2.615 1.35 0 2.384-.95 2.384-2.615Zm-1.091 0c0 1.078-.512 1.663-1.293 1.663-.783 0-1.292-.585-1.292-1.663 0-1.079.509-1.663 1.292-1.663.781 0 1.293.584 1.293 1.663Zm3.922-1.273h-.758v-.256c0-.259.104-.41.415-.41.127 0 .256.027.34.054l.187-.795a2.778 2.778 0 0 0-.748-.105c-.719 0-1.253.406-1.253 1.236v.276h-.54v.795h.54v3.023h1.059v-3.023h.758v-.795Zm2.7 0h-.758v-.256c0-.259.104-.41.415-.41.127 0 .256.027.341.054l.186-.795a2.778 2.778 0 0 0-.748-.105c-.719 0-1.253.406-1.253 1.236v.276h-.54v.795h.54v3.023h1.059v-3.023h.758v-.795Zm2.25 3.893c.945 0 1.581-.46 1.73-1.169l-.979-.064c-.107.29-.38.442-.733.442-.53 0-.865-.35-.865-.92v-.002h2.6v-.291c0-1.298-.786-1.939-1.795-1.939-1.124 0-1.852.798-1.852 1.976 0 1.211.718 1.967 1.894 1.967Zm-.847-2.369a.806.806 0 0 1 .822-.783c.46 0 .778.328.781.783h-1.603Zm3.291 2.294h1.059v-2.16c0-.47.343-.793.81-.793.147 0 .348.025.448.057v-.94a1.627 1.627 0 0 0-.334-.037c-.427 0-.778.249-.917.721h-.04v-.666h-1.026v3.818Z" fill="#A1A1A1"/><defs><clipPath id="a"><path fill="#fff" transform="translate(97.733 49)" d="M0 0h36.837v36.837H0z"/></clipPath><clipPath id="b"><path fill="#fff" transform="translate(68.309 89.578)" d="M0 0h37.852v37.852H0z"/></clipPath></defs></svg>
